packages/bezier-icons/icons/sms-unsubscribed.svg

<svg width="24" height="24" viewBox="0 0 24 24" fill="none" xmlns="http://www.w3.org/2000/svg">
<path d="M6 11.9994C6 12.8252 6.67592 13.5 7.50056 13.5C8.3263 13.5 9.00111 12.8252 9.00111 11.9994C9.00111 11.1748 8.3263 10.5 7.50056 10.5C6.67592 10.5 6 11.1748 6 11.9994Z" fill="#313234"/>
<path d="M12.0006 13.5C11.1759 13.5 10.5 12.8252 10.5 11.9994C10.5 11.1748 11.1759 10.5 12.0006 10.5C12.8263 10.5 13.5011 11.1748 13.5011 11.9994C13.5011 12.8252 12.8263 13.5 12.0006 13.5Z" fill="#313234"/>
<path d="M15 11.9994C15 12.8252 15.6759 13.5 16.5006 13.5C17.3263 13.5 18.0011 12.8252 18.0011 11.9994C18.0011 11.1748 17.3263 10.5 16.5006 10.5C15.6759 10.5 15 11.1748 15 11.9994Z" fill="#313234"/>
<path fill-rule="evenodd" clip-rule="evenodd" d="M12 3C6.36893 3 1.5 6.87529 1.5 12C1.5 14.8483 3.03108 17.3352 5.33525 18.9584C5.09523 19.592 4.78995 20.1768 4.52033 20.6348C4.20883 21.1639 4.25404 21.7844 4.55356 22.2407C4.86463 22.7145 5.46261 23.017 6.12433 22.8496C7.17683 22.5834 8.7919 22.0248 10.2749 20.8793C10.8368 20.9588 11.4131 21 12 21C12.7375 21 13.4619 20.9335 14.1641 20.8065C14.9589 22.5152 16.6908 23.7001 18.7001 23.7001C21.4611 23.7001 23.7001 21.4611 23.7001 18.7001C23.7001 17.1792 23.0212 15.8172 21.95 14.9003C22.3058 13.9973 22.5 13.0236 22.5 12C22.5 6.87529 17.6311 3 12 3ZM20.17 13.9197C20.3855 13.3038 20.5 12.6586 20.5 12C20.5 8.28815 16.8623 5 12 5C7.13766 5 3.5 8.28815 3.5 12C3.5 14.2833 4.84342 16.3746 7.03588 17.679L7.69118 18.0688L7.48867 18.804C7.31856 19.4215 7.08427 20.0074 6.83962 20.5258C7.63792 20.2159 8.53521 19.751 9.3422 19.0609L9.70311 18.7523L10.1704 18.837C10.7588 18.9436 11.3709 19 12 19C12.5868 19 13.1557 18.9521 13.7026 18.8614C13.7009 18.8078 13.7001 18.7541 13.7001 18.7001C13.7001 15.9381 15.9381 13.7001 18.7001 13.7001C19.2116 13.7001 19.7052 13.777 20.17 13.9197ZM17.4151 21.3991C17.8061 21.5861 18.2381 21.7001 18.7001 21.7001C20.3541 21.7001 21.7001 20.3541 21.7001 18.7001C21.7001 18.2381 21.5861 17.8061 21.3991 17.4151L17.4151 21.3991ZM19.9851 16.0011C19.5941 15.8131 19.1611 15.7001 18.7001 15.7001C17.0461 15.7001 15.7001 17.0461 15.7001 18.7001C15.7001 19.1621 15.8131 19.5941 16.0011 19.9851L19.9851 16.0011Z" fill="#313234"/>
</svg>

<svg xmlns="http://www.w3.org/2000/svg" width="24" height="24" fill="none" viewBox="0 0 24 24"><path fill="#313234" d="M6 12c0 .825.676 1.5 1.5 1.5.826 0 1.501-.675 1.501-1.5s-.675-1.5-1.5-1.5S6 11.175 6 12M12 13.5c-.824 0-1.5-.675-1.5-1.5s.676-1.5 1.5-1.5c.826 0 1.501.675 1.501 1.5s-.675 1.5-1.5 1.5M15 12c0 .825.676 1.5 1.5 1.5.826 0 1.501-.675 1.501-1.5s-.675-1.5-1.5-1.5S15 11.175 15 12"/><path fill="#313234" fill-rule="evenodd" d="M12 3C6.369 3 1.5 6.875 1.5 12c0 2.848 1.531 5.335 3.835 6.958-.24.634-.545 1.219-.815 1.677-.311.529-.266 1.15.034 1.606a1.44 1.44 0 0 0 1.57.609c1.053-.267 2.668-.825 4.15-1.97a12.3 12.3 0 0 0 3.89-.073A5 5 0 1 0 21.95 14.9c.356-.903.55-1.876.55-2.9 0-5.125-4.869-9-10.5-9m8.17 10.92A5.8 5.8 0 0 0 20.5 12c0-3.712-3.638-7-8.5-7s-8.5 3.288-8.5 7c0 2.283 1.343 4.375 3.536 5.679l.655.39-.202.735a11 11 0 0 1-.65 1.722c.799-.31 1.696-.775 2.503-1.465l.361-.309.467.085q.884.162 1.83.163.881-.001 1.703-.139l-.003-.16a5 5 0 0 1 6.47-4.781m-2.755 7.48c.391.186.823.3 1.285.3 1.654 0 3-1.346 3-3 0-.462-.114-.894-.3-1.285zM19.985 16a2.95 2.95 0 0 0-1.285-.3c-1.654 0-3 1.345-3 3 0 .461.113.893.301 1.284z" clip-rule="evenodd"/></svg>
